assets/svg/icon_wallet_protect.svg

<svg width="24" height="24" viewBox="0 0 24 24" fill="none" xmlns="http://www.w3.org/2000/svg">
<path d="M4 15.2082C4 12.9455 4 11.8141 4.70294 11.1111C5.40589 10.4082 6.53726 10.4082 8.8 10.4082H15.2C17.4627 10.4082 18.5941 10.4082 19.2971 11.1111C20 11.8141 20 12.9455 20 15.2082C20 17.4709 20 18.6023 19.2971 19.3053C18.5941 20.0082 17.4627 20.0082 15.2 20.0082H8.8C6.53726 20.0082 5.40589 20.0082 4.70294 19.3053C4 18.6023 4 17.4709 4 15.2082Z" stroke="#0E0E0E" stroke-width="1.5"/>
<path d="M9.6 15.2082C9.6 15.65 9.24183 16.0082 8.8 16.0082C8.35817 16.0082 8 15.65 8 15.2082C8 14.7664 8.35817 14.4082 8.8 14.4082C9.24183 14.4082 9.6 14.7664 9.6 15.2082Z" fill="#0E0E0E"/>
<path d="M12.8 15.2082C12.8 15.65 12.4418 16.0082 12 16.0082C11.5582 16.0082 11.2 15.65 11.2 15.2082C11.2 14.7664 11.5582 14.4082 12 14.4082C12.4418 14.4082 12.8 14.7664 12.8 15.2082Z" fill="#0E0E0E"/>
<path d="M16 15.2082C16 15.65 15.6418 16.0082 15.2 16.0082C14.7582 16.0082 14.4 15.65 14.4 15.2082C14.4 14.7664 14.7582 14.4082 15.2 14.4082C15.6418 14.4082 16 14.7664 16 15.2082Z" fill="#0E0E0E"/>
<path d="M7.19922 10.4078V8.80781C7.19922 6.15685 9.34825 4.00781 11.9992 4.00781C14.2358 4.00781 16.1151 5.53754 16.648 7.60781" stroke="#0E0E0E" stroke-width="1.5" stroke-linecap="round"/>
</svg>

<svg xmlns="http://www.w3.org/2000/svg" width="24" height="24" fill="none"><path stroke="#0E0E0E" stroke-width="1.5" d="M4 15.208c0-2.263 0-3.394.703-4.097s1.834-.703 4.097-.703h6.4c2.263 0 3.394 0 4.097.703S20 12.945 20 15.208s0 3.394-.703 4.097-1.834.703-4.097.703H8.8c-2.263 0-3.394 0-4.097-.703S4 17.471 4 15.208Z"/><path fill="#0E0E0E" d="M9.6 15.208a.8.8 0 1 1-1.6 0 .8.8 0 0 1 1.6 0M12.8 15.208a.8.8 0 1 1-1.6 0 .8.8 0 0 1 1.6 0M16 15.208a.8.8 0 1 1-1.6 0 .8.8 0 0 1 1.6 0"/><path stroke="#0E0E0E" stroke-linecap="round" stroke-width="1.5" d="M7.2 10.408v-1.6a4.8 4.8 0 0 1 9.448-1.2"/></svg>
